X: 395
T: Sonata	 Op. 65
C: Fryderyk Chopin
%%abc-version 2.0
%%abcx-abcm2ps-target-version 5.9.1 (29 Sep 2008)
%%abc-creator hum2abc beta
%%abcx-conversion-date 2021/10/03 11:23:28
%%abc-edited-by Wojciech Jakubiak-Danek
%%abcx-initial-encoding-date 2020-04-27
%%humdrum-veritas 3942992221
%%humdrum-veritas-data 1609753768
%%linebreak <none>
%%barnumbers 0
L: 1/8
M: C
N: Derived from 065-1-BH-001-violino.krn
P: Sonate pour Piano et Violoncelle
Q: "Allegro moderato."
K: Bb clef=treble
Z8 | 
A>B!accent!!fermata!A4d3/c/ | 
B2G2^F2G3/E/ | 
D2>{/F} E2D2D2 | 
D2=E>^FG2d2 | 
d2>e2c2G2 | 
d2(3dfec2e2 | 
e2>f2_d2c2 | 
=B>gg2-gf/e/ =d/c/d/e/ | 
d>d'd'2-d'c'/b/ a/g/a/b/ | 
a/g/a/b/ a/g/d/B/ A/G/A/B/ ^F/A/G/C/ | 
D2z2z4 | 
[d'2d2D2]z2z4 | 
[g2=B2D2G,2]z2G2G2 | 
G2B_A Ace.e | 
e2f2e2_d2 | 
c4-c^c=dA | 
B4-BAB^F | 
^FGD2DGB^c | 
d2=cB AGBd | 
f4e2dc | 
d4-dgfe | 
d>ed2-d=Bdc | 
f2_a4_A3/A/ | 
{/G_AB}A2G d ^cdg3/d/ | 
e2!accent!e^F Fc cD | 
Be e^F Fc cD | 
(3:2:12cB>A AG>=F FE>D DCB,/ | 
A,2!accent![AA,](3G/F/=E/D2!accent![GG,](3F/_E/D/ | 
C>G (3cegC4- | 
(3CGc (3egc'C4- | 
C>c (3e_ae'E3C | 
C_CB,2(3B,_G_d d3/B,/ | 
CF D/E/F/E/D2[=B2D2G,2] | 
[c2E2G,2]D/E/F/E/D2G/F/E/D/ | 
_D4z2_d2 | 
G2{/_AG^F} G>^G=A2a3/=g/ | 
[^f2A2][d2^F2][^c2F2][d3/F3/][A/F/] | 
A6z2 & D2>_E2D2x2 | 
[g2B2][e2G2][d2G2][e3/G3/]B/ | 
B6z2 & E2>F2E2x2 | 
_a2e2f2e3/_d/ | 
c>_de2-ed (3dcB | 
BE- (3EFG _ABc3/.c/ | 
c2=D2z2D2 | 
D2-(3D=E^F GAB3/.B/ | 
B2A2=E^FG3/.G/ | 
G^Fc2-cde3/.e/ | 
e2D2z2e3/.e/ | 
e2D2z2e2 | 
e2d>A B/G/D/G,/ A,/=E/^F/E/ | 
D^C/D/ =E/^F/G/A/ B/G/D/G,/ A,/E/F/E/ | 
DA (3BAD (3Ad^f (3add' | 
d'6z2 | 
Z4 | 
f4.f2.f2 | 
f8 | 
e2^F2G2e2 | 
{/d2}c4z4 | 
z8 | 
z2=B,CD2ED | 
DCG4z2 | 
z2^CD=E2FE | 
=ED2<A2ABA | 
GA2<F2FGA | 
BE2^C- CD2=E | 
=E>FD>GF2_e2 | 
d2>^c2 =c=B_Bd | 
Ff2_A AGz2 | 
ze2d- d^c=ce | 
Gg2B BA2.A | 
A2c>B BA/B/ B/e/e/f/ | 
_g6z2 | 
z2[=E2G,2][gc]=B/c/ d/=e/f/g/ | 
a4a2a2 | 
agfad2=e2 | 
f z!accent!a4a2 | 
agfad2=e2 | 
f2f4f2 | 
f2=ef gfed | 
^cd=ed fcde | 
f=edf=B2!trill!^c2{/Bc} | 
d2z2z2_b2 | 
^c2d2=e2de | 
f2=e2d2_b2 | 
^c2d2=e2de | 
f2g2a2=B2 | 
c2c'4c'2- | 
c'2-c'/=b/b/c'/ _d'/c'/_b/_a/ g/f/b/a/ | 
_a/g/cz2z2c'2 | 
!accent!c'2-c'/d'/d'/c'/ c'/=b/b/_b/ b/c'/c'/b/ | 
b/a/a/a/ a/^g/g/g/ g/=g/g/g/ g/f/f/f/ | 
f/b/b/e/ e/d/d/d/ d/A/A/A/ A/D/C/B,/ | 
A,/B,/^G,/B,/ A,/D/C/B,/ A,/B,/G,/B,/ A,/=G/F/=E/ | 
D8- | 
D zz2z4 | 
z8 | 
z4z> =E D/^C/=C/B,/ | 
A,/D/F/G/ A/=B/c/^c/ d/=e/f/g/ a/A/=B/^c/ | 
d/=e/f/g/ a/a/=b/^c'/ d'/=e'/f'/g'/ a' A- | 
A^G=G=e e^F=Fd | 
d2cB A=EGF | 
D4z4 |[1 
Z11 | 
C>DC2-CF=ED | 
CF=ED CABd | 
c2d>=ef2g2 | 
a2=b>c'd'2c'3/d'/ | 
=e'2>f'2e'4- | 
e'4=e4 | 
=e6e3/^d/ | 
=d>=ed4_d2 | 
_d2_A2G2A3/F/ | 
_D2>E2D4 | 
_D2E>F_G2_A2 | 
=A4z2a2 | 
a2^f2=B2c3/A/ | 
C2>D2C2^F2 | 
=B,2^C>^D=E2^F2 | 
^G2=E2^D2E3/^C/ | 
=B,^FA^c2<=B2A | 
^G2-GA =B^c^d=e | 
f6^G2 | 
A2_Bc d=efg | 
a2z A G{/A}GF=E | 
D2z F GABc | 
d2>D2 C{/D}CB,A, | 
G,2B,2E2G3/G/ | 
^C2G>GC2G3/G/ | 
^C8 | 
[A2=E2C2][E2^C2][a2^c2E2]A(3G/F/=E/ | 
D>A (3dfaA,4- | 
A,>A (3dfa DA (3def | 
a2gf =edfa | 
c'2_e'^f fc' c'd | 
b2z B B>A A3/=e/ | 
fd z> B, B,>A, A,3/G/ | 
(3:2:12GF>=E ED>C CB,>A, AGF/ | 
=E2E(3D/C/=B,/A,2B,(3A/G/^F/ | 
=E>=B (3B=eg=B,4- | 
=B,>=B (3B=eg =b=ega | 
=b2ag ^f=egb | 
d'2f'^g gd' d'=e | 
=ec' c'^d da a=B | 
g z G/^c/=e/g/g2fe | 
f_a a=B Bf fG | 
_e2E/A/c/e/ e zF2 | 
=E2A,CE2Ac | 
=e2ac'=e'2a'2 | 
G,>GG4G2 | 
^F4=F4 | 
=E2F>DE2F3/D/ | 
=E2F>DE2F3/D/ | 
=E2=B,2E2=e2 | 
=b8 | 
=e'4z4 | 
=E>FE6 | 
Z4 | 
d4.d2.d2 | 
d8 | 
c2^D2=E2c2 | 
{/=B2}A6z2 ||  
 [K:G] z8 | 
z2^G,A,B,2CB, | 
B,A,E4z2 | 
z2^A,B,^C2DC | 
^CB,3/F2>f2gf [I:setbarnb 189]| 
efd2z def | 
gc2^A2B2^c | 
^c>dB>ed2=c2 | 
B2>_B2 A^G=G=B | 
D!accent!d2=F FEz2 | 
zc2B- B^A=Ac | 
Ee2G- GF2F | 
F2!accent!A>G GF/G/ A/B/c/d/ | 
e4z4 | 
z2C2[A=FC] e/=f/ g/a/_b/c'/ ||  
 [K:Bb] d'4d'2d'2 | 
d'c'bd'g2a2 | 
b zd'4d'2 | 
d'c'bd'g2!trill!a2{/ga} | 
b2b4b2 | 
b2ab c'bag | 
^fgag bfga | 
bagb=e2!trill!^f2{/ef} | 
g2z2z2e2 | 
^F2G2A2GA | 
B2A2G2e2 | 
^F2G2A2GA | 
B2c2d2=E2 | 
F2f4f2- | 
f2-f/=e/e/f/ _g/f/_e/_d/ c/B/e/d/ | 
_d/c/Fz2z2f2 | 
f2-f/g/g/f/ f/=e/e/_e/ e/f/f/e/ | 
e/d/d/d/ d/^c/c/c/ c/=c/c/c/ c/B/B/B/ | 
B/e/e/_A/ A/G/G/G/ G/D/D/D/ D/G/B/^c/ | 
d/e/^c/e/ d/g/f/e/ d/B/A/G/ D/=C/B,/A,/ | 
G,8 | 
G,8 | 
G,2G,4(3.G,.G,.G, | 
G,2(3.G,.G,.G,G,2.G,/.G,/.G,/.G,/ | 
G,/A,/B,/C/ D/=E/F/^F/ G/A/B/c/ d/=e/=f/^f/ | 
g/a/b/c'/ d'/d'/=e'/^f'/ g'/a'/b'/c''/ d''d | 
d^c=ca a=B_Bg | 
g2fe dAcB | 
Gf=e_e dAcB | 
Gbge dDB,A, | 
G,8- | 
G,>D (3GBdG,4- | 
G,>D (3BdgD4- | 
D2B,2A,2G,2 | 
D8- | 
D2z2z2[^f2A2D2] | 
[g2B2D2G,2]z2z4 |]
